svg/tw.svg

<svg width="20" height="16" viewBox="0 0 20 16" fill="none" xmlns="http://www.w3.org/2000/svg">
<path d="M20 1.89399C19.2648 2.21572 18.4735 2.43273 17.6433 2.52985C18.491 2.03027 19.1409 1.23895 19.4475 0.294949C18.6546 0.758156 17.7768 1.09427 16.8418 1.27572C16.0936 0.490783 15.0271 0 13.8469 0C11.5811 0 9.74403 1.80846 9.74403 4.03937C9.74403 4.3555 9.78016 4.66364 9.85039 4.95978C6.44013 4.79113 3.41636 3.18329 1.39253 0.739371C1.03932 1.33566 0.83714 2.02947 0.83714 2.77044C0.83714 4.17165 1.56142 5.4082 2.66244 6.13239C1.99013 6.11121 1.35721 5.92936 0.803849 5.62682C0.803443 5.6436 0.803443 5.66079 0.803443 5.67797C0.803443 7.63471 2.21789 9.26692 4.09516 9.63861C3.75089 9.73053 3.38834 9.78009 3.01403 9.78009C2.74933 9.78009 2.49234 9.75491 2.24184 9.70735C2.76435 11.312 4.27948 12.4802 6.07474 12.5126C4.67044 13.596 2.90157 14.2419 0.978828 14.2419C0.647951 14.2419 0.321133 14.2227 0 14.1851C1.81637 15.3318 3.97296 16 6.28991 16C13.8376 16 17.9644 9.84523 17.9644 4.50737C17.9644 4.33232 17.9607 4.15767 17.953 3.98421C18.7544 3.4159 19.4503 2.7041 20 1.89399Z" fill="#1CB7EB"/>
</svg>

<svg fill="none" xmlns="http://www.w3.org/2000/svg" viewBox="0 0 20 16"><path d="M20 1.894a8.265 8.265 0 01-2.357.636A4.059 4.059 0 0019.448.295c-.793.463-1.671.8-2.606.98A4.128 4.128 0 0013.847 0C11.58 0 9.744 1.808 9.744 4.04c0 .316.036.624.106.92A11.712 11.712 0 011.393.74a3.97 3.97 0 00-.556 2.03c0 1.402.724 2.638 1.825 3.362a4.14 4.14 0 01-1.858-.505v.051c0 1.957 1.414 3.589 3.291 3.96a4.187 4.187 0 01-1.853.07 4.1 4.1 0 003.833 2.805 8.315 8.315 0 01-5.096 1.729c-.331 0-.658-.02-.979-.057A11.744 11.744 0 006.29 16c7.548 0 11.674-6.155 11.674-11.493 0-.175-.003-.35-.011-.523A8.24 8.24 0 0020 1.894z" fill="#1CB7EB"/></svg>
